packages/core/assets/Icons/check_small.svg

<svg viewBox="0 0 20 20" fill="none" xmlns="http://www.w3.org/2000/svg">
<path d="M8.33334 11.3333L13.25 6.41667C13.4028 6.26389 13.5972 6.1875 13.8333 6.1875C14.0694 6.1875 14.2639 6.26389 14.4167 6.41667C14.5694 6.56944 14.6458 6.76389 14.6458 7C14.6458 7.23611 14.5694 7.43056 14.4167 7.58333L8.91667 13.0833C8.75001 13.25 8.55556 13.3333 8.33334 13.3333C8.11112 13.3333 7.91667 13.25 7.75001 13.0833L5.58334 10.9167C5.43056 10.7639 5.35417 10.5694 5.35417 10.3333C5.35417 10.0972 5.43056 9.90278 5.58334 9.75C5.73612 9.59722 5.93056 9.52083 6.16667 9.52083C6.40278 9.52083 6.59723 9.59722 6.75001 9.75L8.33334 11.3333Z" fill="currentColor"/>
</svg>

<svg xmlns="http://www.w3.org/2000/svg" width="20" height="20" fill="none" viewBox="0 0 20 20">
  <path fill="#201F1F" d="m8.333 11.333 4.917-4.916a.79.79 0 0 1 .583-.23.79.79 0 0 1 .584.23.79.79 0 0 1 .229.583.79.79 0 0 1-.23.583l-5.5 5.5a.8.8 0 0 1-.583.25.8.8 0 0 1-.583-.25l-2.167-2.166a.79.79 0 0 1-.229-.584.79.79 0 0 1 .23-.583.79.79 0 0 1 .583-.23.79.79 0 0 1 .583.23l1.583 1.583Z"/>
</svg>
